X: 1
T: Muireann's
R: jig
M: 6/8
L: 1/8
K: Bmin
dCA ~B3|def ede|f2e ede|f3 efe|dBA ~B3|def ede|f2a fed|efe edB:|
|:BAB ede|BAB fef|e2a fed|efe edB|BAB ede|BAB fef|baf aba|fee edB:|
|:BAF EFE|FDE FDE|FAA B3|dCd edB|BAF EFE|FDE FDE|FAA B3|1 def e3:|
|:fef bab|fef ~afa|fba fed|efe ede|fef bab|fef ~afa|baf aba|1 fee ede:|2 fee edB||
